X: 3016
T: New Bore.
%R: bourr\'ee
B: Henry Playford "Apollo's Banquet", London 1687 (5th Edition)
F: https://archive.org/details/apollosbanquetco01rugg
Z: 2017 John Chambers <jc:trillian.mit.edu>
M: C|
L: 1/8
K: G
% - - - - - - - - - -
d2 |\
B2A2 c3d | B4 B2d2 | e2d2 c3B | A6 d2 |\
d2d2 e2fg | f4 f2d2 | gfed ^c3d | d6 :|
|: ff |\
f2g2 e3f | ^d4 ^d2ee | f2g2 f3e | e2B2 B3c |\
d3d | A3B | c4 cdef |
g2B2 A3G |\
G2 !segno!yg>g g2=f>e | =f2ff f2ed | e3d c2cB | A4 A2d2 |\
d2cB A3G | (G2 !segno!:: G6) |]
% - - - - - - - - - -

%%sep 1 1 500
%%sep 1 1 500

